!!!COM: Beethoven, Ludwig van
!!!CDT: 1770///-1827///
!!!OTL: Piano Sonata no. 1, mvmt. 3
!!!OMD: Minuet: Allegretto
!!!OPS: Op. 2
!!!ONM: No. 1
!!!OMV: No. 3
!!!AGN: Minuet and Trio
**kern	**dynam	**kern	**dynam
*thru	*thru	*thru	*thru
*Ipiano	*Ipiano	*Ipiano	*Ipiano
!! Minuetto: Allegretto
*>C	*>C	*>C	*>C
*k[b-]	*k[b-]	*k[b-]	*k[b-]
*M3/4	*M3/4	*M3/4	*M3/4
4r	.	4c/	p
=41	=41	=41	=41
(4F\	.	(8a/L	.
.	.	8g/	.
4A\	.	8a/	.
.	.	8f/	.
4c\	.	8g/	.
.	.	8a/J	.
=42	=42	=42	=42
4d\	.	8b-/L	.
.	.	8a/	.
4G\	.	8b-/	.
.	.	8g/	.
4F\	.	8a/	.
.	.	8b/J	.
=43	=43	=43	=43
4E\	.	8cc\L	.
.	.	8b\	.
4G\	.	8cc\	.
.	.	8dd\	.
4c\	.	8cc\	.
.	.	8b-\J	.
=44	=44	=44	=44
4F\	.	8a/L	.
.	.	8g/	.
4A\	.	8a/	.
.	.	8b-/	.
4c\)	.	8a/	.
.	.	8f/J)	.
=45	=45	=45	=45
*	*	*^	*
8AA/L	.	(4a/	2.a\	.
(8GG#/	.	.	.	.
8AA/	.	4cc/	.	.
8FF/	.	.	.	.
8GG/	.	4ff/)	.	.
8AA/J	.	.	.	.
=46	=46	=46	=46	=46
8BB-/L	.	(4g/	2.g\	.
8AA/	.	.	.	.
8BB-/	.	4dd/	.	.
8GG/	.	.	.	.
8AA/	.	4ff/)	.	.
8BB/J	.	.	.	.
=47	=47	=47	=47	=47
8C/L	.	4r	2.g\	.
8BB/	.	.	.	.
8C/	.	(4ff/	.	.
8AA/	.	.	.	.
8BB/	.	4ee/)	.	.
8C#/J	.	.	.	.
=48	=48	=48	=48	=48
8D/L	.	4r	2f\	.
8AA/	.	.	.	.
8BB/	.	(4dd/	.	.
8GG/	.	.	.	.
8C/	.	4cc/)	4e\	.
8FF#/J)	.	.	.	.
*	*	*v	*v	*
=49	=49	=49	=49
2GG/	.	8r	.
.	.	(8g/L	.
.	.	8e/	.
.	.	8c/	.
4GGG/	.	8B/ 8f/	.
.	.	8d/J)	.
=50	=50	=50	=50
4CC/	.	4c/	.
4C/	.	4r	.
